X:2
T:Under the Triboro
R:Strathspey
C:Bruce Gandy
M:C
L:1/8
Q:"112 bpm"
K:D
[|{Gdc}d2 {g}f/e/d {gBd}B>A {g}B<d | {g}A>{d}B {ag}a>f {g}e>d {g}e<f | {Gdc}d2 {g}f/e/d {gBd}B>A {g}B<d | {ag}a>f {g}e>d {g}e<f {Gdc}d2 |
{gdG}d2 {g}f/e/d {gBd}B>A {g}B<d | {g}A>{d}B {ag}a>f {g}e>d {g}e<f | {Gdc}d2 {g}f/e/d {gBd}B>A {g}B<d | {ag}a>f {g}e>d {g}e<f {Gdc}d2 ||
{g}f>e {g}f<a {ef}e>d {g}e<f | {ag}a>f {g}e>d {g}e<f {gBd}B2 | {Gdc}d>e {g}d>A {g}B<d {g}e>f | {ag}a>f {g}e>d {g}e<f {Gdc}d2 |
{g}f>e {g}f<a {ef}e>d {g}e<f | {ag}a>f {g}e>d {g}e<f {gBd}B2 | {Gdc}d>e {g}d>A {g}B<d {g}e>f | {ag}a>f {g}e>d {g}e<f {Gdc}d2 ||
{g}A>B {Gdc}d>A {g}B<{d}A {gfg}f2 | {Gdc}d>f {ag}a>f {g}e>d {g}e<f | {g}A>B {Gdc}d>A {g}B<{d}A {gfg}f2 | {ag}a>f {g}e>d {g}e<f {Gdc}d2 |
{g}A>B {Gdc}d>A {g}B<{d}A {gfg}f2 | {Gdc}d>f {ag}a>f {g}e>d {g}e<f | {g}A>B {Gdc}d>A {g}B<{d}A {gfg}f2 | {ag}a>f {g}e>d {g}e<f {Gdc}d2 ||
{ag}a2 f/e/d {ag}a>d {gfg}f2 | {g}e2 {GdG}e>d {g}f/e/d {gBd}B2 | {Gdc}d>e {g}d>A {g}B<d {g}e>f | {ag}a>f {g}e>d {g}e<f {Gdc}d2 |
{ag}a2 f/e/d {ag}a>d {gfg}f2 | {g}e2 {GdG}e>d {g}f/e/d {gBd}B2 | {Gdc}d>e {g}d>A {g}B<d {g}e>f | {ag}a>f {g}e>d {g}e<f {Gdc}d2 |]

